packages/bezier-icons/icons/chat-cancel.svg

<svg width="24" height="24" viewBox="0 0 24 24" fill="none" xmlns="http://www.w3.org/2000/svg">
<path fill-rule="evenodd" clip-rule="evenodd" d="M20.8253 16.6892C20.7783 16.7792 20.7073 16.9552 20.7653 17.1322L21.6333 19.7352C21.8143 20.2782 21.6753 20.8662 21.2713 21.2702C20.8663 21.6752 20.2763 21.8112 19.7363 21.6332L17.1313 20.7652C16.9573 20.7072 16.7803 20.7772 16.6913 20.8242C15.2353 21.6022 13.6363 22.0002 12.0003 22.0002C11.5153 22.0002 11.0263 21.9652 10.5363 21.8942C6.2663 21.2782 2.8103 17.8842 2.1323 13.6432C1.6133 10.3972 2.6363 7.21818 4.9363 4.92218C7.2383 2.62518 10.4213 1.61118 13.6643 2.13518C17.7183 2.79118 20.9853 5.93518 21.7953 9.96018C22.2653 12.2952 21.9303 14.6222 20.8253 16.6892ZM18.8683 17.7642C18.6493 17.1072 18.7183 16.3912 19.0613 15.7472C19.9443 14.0942 20.2123 12.2292 19.8343 10.3542C19.1883 7.14318 16.5803 4.63318 13.3453 4.10918C12.8943 4.03618 12.4433 4.00018 11.9993 4.00018C9.87729 4.00018 7.87229 4.81818 6.35029 6.33818C4.50829 8.17518 3.69129 10.7232 4.10729 13.3272C4.64829 16.7132 7.41029 19.4222 10.8223 19.9152C12.5333 20.1622 14.2393 19.8662 15.7483 19.0602C16.3923 18.7172 17.1063 18.6482 17.7643 18.8672L19.4193 19.4192L18.8683 17.7642ZM14.8284 7.75735L16.2426 9.17157L13.4142 12L16.2426 14.8284L14.8284 16.2426L12 13.4142L9.17157 16.2426L7.75735 14.8284L10.5858 12L7.75735 9.17157L9.17157 7.75735L12 10.5858L14.8284 7.75735Z" fill="#313234"/>
</svg>

<svg xmlns="http://www.w3.org/2000/svg" width="24" height="24" fill="none" viewBox="0 0 24 24"><path fill="#313234" fill-rule="evenodd" d="M20.825 16.69c-.047.09-.118.265-.06.442l.868 2.603a1.49 1.49 0 0 1-.362 1.535 1.5 1.5 0 0 1-1.535.363l-2.605-.868c-.174-.058-.35.012-.44.06A9.9 9.9 0 0 1 12.001 22q-.73 0-1.465-.106c-4.27-.616-7.726-4.01-8.404-8.25-.519-3.247.504-6.426 2.804-8.722 2.302-2.297 5.485-3.31 8.728-2.787 4.054.656 7.321 3.8 8.131 7.825.47 2.335.135 4.662-.97 6.73m-1.957 1.074c-.219-.657-.15-1.373.193-2.017.883-1.653 1.151-3.518.773-5.393a7.945 7.945 0 0 0-6.489-6.245A8.4 8.4 0 0 0 12 4 7.93 7.93 0 0 0 6.35 6.338c-1.842 1.837-2.659 4.385-2.243 6.99.541 3.385 3.303 6.094 6.715 6.587a7.97 7.97 0 0 0 4.926-.855c.644-.343 1.358-.412 2.016-.193l1.655.552zm-4.04-10.007 1.415 1.415L13.414 12l2.829 2.828-1.415 1.415L12 13.414l-2.828 2.829-1.415-1.415L10.586 12 7.757 9.172l1.415-1.415L12 10.586z" clip-rule="evenodd"/></svg>
